_src/static/img/icon/magnifier.svg

<svg width="64" height="64" viewBox="0 0 64 64" fill="none" xmlns="http://www.w3.org/2000/svg">
<path fill-rule="evenodd" clip-rule="evenodd" d="M61.2061 50.5682C61.2534 50.598 61.2983 50.6311 61.3408 50.6672C64.5195 53.3475 64.8052 57.9552 62.4297 60.982C59.4629 64.7646 53.8364 64.8309 50.7739 61.2183C50.7378 61.1754 50.7046 61.1306 50.6743 61.0838L46.9131 55.2003C44.4438 51.3382 40.3506 46.6618 37.0894 43.3723C33.1553 46.0361 28.584 47.4391 23.7998 47.4391C10.6763 47.4391 0 36.7914 0 23.7032C0 10.6335 10.6538 0 23.7495 0C36.873 0 47.5493 10.6477 47.5493 23.7359C47.5493 28.5882 46.1021 33.211 43.3545 37.1745C46.6201 40.3889 51.2534 44.2339 55.0488 46.6496L61.2061 50.5682ZM23.7998 44.944C28.4038 44.944 32.7881 43.4922 36.4785 40.7456C41.6357 36.9064 45.0493 30.7568 45.0493 23.7359C45.0493 12.0234 35.4946 2.49513 23.7495 2.49513C12.0327 2.49513 2.5 12.0093 2.5 23.7032C2.5 35.4157 12.0552 44.944 23.7998 44.944ZM39.0972 41.8514C40.0728 41.0292 40.981 40.1306 41.8145 39.1623C43.0474 40.3645 44.4502 41.6389 45.9077 42.8811L42.8721 45.9103C41.6494 44.521 40.3555 43.1296 39.0972 41.8514ZM52.7344 59.6672C54.8047 62.0336 58.5068 61.9362 60.4614 59.444C62.0732 57.3899 61.7666 54.3484 59.7876 52.6243L53.7051 48.7534C51.938 47.6287 49.9263 46.1633 47.8394 44.482L44.5029 47.8119C46.332 50.0049 47.8833 52.0794 49.0205 53.8582L52.7344 59.6672ZM23.7495 7.48538C17.6172 7.48538 12.0688 10.8816 9.26904 16.348C8.95508 16.9615 8.20166 17.2047 7.5874 16.8913C6.97266 16.5775 6.729 15.826 7.04297 15.2125C10.1748 9.09698 16.5278 4.99025 23.7495 4.99025C24.4399 4.99025 24.9995 5.54873 24.9995 6.23782C24.9995 6.9269 24.4399 7.48538 23.7495 7.48538ZM6.25 20.9888C6.76758 20.9888 7.1875 20.5702 7.1875 20.0531C7.1875 19.5366 6.76758 19.1174 6.25 19.1174C5.73193 19.1174 5.3125 19.5366 5.3125 20.0531C5.3125 20.5702 5.73193 20.9888 6.25 20.9888ZM36.2495 32.5609H34.9995V11.3528C34.9995 10.6637 34.4399 10.1053 33.7495 10.1053H26.2495C25.5591 10.1053 24.9995 10.6637 24.9995 11.3528V17.5906H18.75C18.0596 17.5906 17.5 18.1491 17.5 18.8382V25.076H11.25C10.5596 25.076 10 25.6345 10 26.3236V32.5609H8.75C8.05957 32.5609 7.5 33.1199 7.5 33.8085C7.5 34.4976 8.05957 35.056 8.75 35.056H36.2495C36.9399 35.056 37.4995 34.4976 37.4995 33.8085C37.4995 33.1199 36.9399 32.5609 36.2495 32.5609ZM17.5 32.5609H12.5V27.5711H17.5V32.5609ZM20 32.5609H24.9995V20.0858H20V32.5609ZM32.4995 32.5609H27.4995V12.6004H32.4995V32.5609Z" fill="url(#paint0_linear)"/>
<defs>
<linearGradient id="paint0_linear" x1="-32" y1="31.9373" x2="31.8744" y2="95.9372" gradientUnits="userSpaceOnUse">
<stop stop-color="#F0CD46"/>
<stop offset="1" stop-color="#EE5768"/>
</linearGradient>
</defs>
</svg>

<svg width="64" height="64" fill="none" xmlns="http://www.w3.org/2000/svg"><path fill-rule="evenodd" clip-rule="evenodd" d="M61.206 50.568c.047.03.092.063.135.1 3.178 2.68 3.464 7.287 1.089 10.314-2.967 3.783-8.594 3.849-11.656.236a1.339 1.339 0 01-.1-.134l-3.76-5.884c-2.47-3.862-6.563-8.538-9.825-11.828A23.552 23.552 0 0123.8 47.44C10.677 47.44 0 36.791 0 23.703 0 10.633 10.654 0 23.75 0c13.123 0 23.8 10.648 23.8 23.736a23.42 23.42 0 01-4.195 13.439c3.265 3.214 7.898 7.059 11.694 9.475l6.157 3.918zM23.8 44.944c4.604 0 8.988-1.452 12.678-4.198 5.158-3.84 8.571-9.99 8.571-17.01 0-11.713-9.554-21.24-21.3-21.24C12.034 2.495 2.5 12.008 2.5 23.702c0 11.713 9.555 21.241 21.3 21.241zm15.297-3.093a23.942 23.942 0 002.718-2.689 83.923 83.923 0 004.093 3.72l-3.036 3.028a100.686 100.686 0 00-3.775-4.059zm13.637 17.816c2.07 2.367 5.773 2.27 7.727-.223 1.612-2.054 1.306-5.096-.673-6.82l-6.083-3.87c-1.767-1.125-3.779-2.59-5.866-4.272l-3.336 3.33c1.829 2.193 3.38 4.267 4.517 6.046l3.714 5.81zM23.75 7.485c-6.132 0-11.68 3.397-14.48 8.863a1.251 1.251 0 01-1.682.543 1.247 1.247 0 01-.544-1.678C10.175 9.097 16.528 4.99 23.75 4.99a1.249 1.249 0 110 2.495zM6.25 20.99a.937.937 0 10.002-1.873.937.937 0 00-.002 1.873zm30 11.572H35V11.353c0-.69-.56-1.248-1.25-1.248h-7.5c-.69 0-1.25.559-1.25 1.248v6.238h-6.25c-.69 0-1.25.558-1.25 1.247v6.238h-6.25c-.69 0-1.25.558-1.25 1.248v6.237H8.75a1.249 1.249 0 100 2.495h27.5a1.249 1.249 0 100-2.495zm-18.75 0h-5v-4.99h5v4.99zm2.5 0h5V20.086h-5V32.56zm12.5 0h-5V12.6h5v19.96z" fill="url(#paint0_linear)"/><defs><linearGradient id="paint0_linear" x1="-32" y1="31.937" x2="31.874" y2="95.937" gradientUnits="userSpaceOnUse"><stop stop-color="#F0CD46"/><stop offset="1" stop-color="#EE5768"/></linearGradient></defs></svg>
